X:1
T:James Gibb editions
T:Psalm 43 (Becker) - Schütz
%%score [ ( 1 2 ) ( 3 4 ) ]
L:1/8
Q:1/4=100
M:2/2
K:C
V:1 treble nm="Soprano Alto"
V:2 treble 
V:3 bass nm="Tenor Bass"
V:4 bass 
V:1
"^Cornelius Becker\n(1561-1604)""^Psalm 43, SWV 140""^Heinrich Schütz\n(1585-1672)" E4"^Psalm 42 (Becker) - Schütz" B4 | %1
w: ~Gott, führ|
w: Er- ret-|
 d2 c4 G2 | A2 c2 B4 | e4 d4- | d2 A2 d2 c2 | B4 A4 :|[M:2/2] (c3 B/c/ d2) B2 | A3 A G4 | %8
w: mein Sach und|rich- te mich,|un- hei\-|* lig Volk be-|strei- te!|Herr, * * * mein|Zu- ver- sicht,|
w: te mich ge-|nä- dig- lich|von fal\-|* schen, bö- sen|Leu- ten,|||
 c3 (B A2 G2) | F2 E2 D4 | (F3 E/F/ G2) E2 | D2 D2 C4 | G4 c2 A2 | B2 B2 ^c4 | A4 d2 B2 | %15
w: ver- stoß * *|mich doch nicht,|laß * * * mich|nicht hülf- los|in Schmerz und|Trau- ren groß,|wenn mich mein|
w: |||||||
 (e3 d c2) B2 | c8 | B8 |] %18
w: Feind * * be-|drän-|get.|
w: |||
V:2
 B,4 E4 | D2 E4 B,2 | D2 E2 E4 | G4 G4- | G2 A2 G2 E2 | E4 E4 :|[M:2/2] E4 D4 | D3 D D4 | %8
 F2 (C3 D E2) | E2 ^C2 D4 | D6 C2 | C2 B,2 C4 | C4 E2 C2 | F2 E2 E4 | D4 D2 E2 | E4 E4 | E8 | E8 |] %18
V:3
 G,4 G,4 | B,2 G,4 E,2 | ^F,2 A,2 ^G,4 | C4 B,4- | B,2 D2 B,2 A,2 | ^G,4 A,4 :|[M:2/2] z2 A,4 G,2 | %7
 ^F,3 F, G,4 | (A,3 G, F,2) E,2 | A,2 A,2 A,4 | A,4 D,2 G,2 | G,4 G,4 | %12
"^2. Send mir das Licht der Wahrheit dein, zu gehn auf deinen Wegen,\nleit mich zur lieben Christeng'mein, daß ich empfang den Segen\nund zu dir, Herr, komm, hab groß Freud und Wonn, so will ich fröhlich\nauf Harfen loben dich, o Gott, mein treuer Herre.\n\n3. Was betrübst du dich, meine Seel, hast Unruh früh und spate?\nHarr nur auf Gott, all'm Ungefäll weiß er gar wohl zu raten,\nzuletzt ich ihm noch werd danksagen hoch, daß er mein Gott ist,\nmir hilft zu aller Frist durch seine große Gnade.\n\n" E,4 A,2 A,2 | %13
 A,2 ^G,2 A,4 | ^F,4 G,2 G,2 | (G,4 A,2) B,2 | (E,4 A,4) | ^G,8 |] %18
V:4
 E,4 E,4 | B,,2 C,4 E,2 | D,2 A,,2 E,4 | C,4 G,4- | G,2 ^F,2 G,2 A,2 | E,4 A,,4 :| %6
[M:2/2] (A,3 G, ^F,2) G,2 | D,3 D, G,,4 | (F,,3 G,, A,,2) C,2 | D,2 A,,2 D,4 | (D,3 C, B,,2) C,2 | %11
 G,,2 G,,2 C,4 | C,4 A,,2 F,2 | D,2 E,2 A,,4 | D,4 B,,2 E,2 | (C,3 B,, A,,2) ^G,,2 | A,,8 | E,8 |] %18

